icons/history-16.svg

<svg width="16" height="16" viewBox="0 0 16 16" xmlns="http://www.w3.org/2000/svg">
  <path fill-rule="evenodd" clip-rule="evenodd" d="M1.64294 3.14291L0.426777 1.92675C0.269286 1.76926 0 1.8808 0 2.10353V5.74998C0 5.88805 0.111929 5.99998 0.25 5.99998H3.89645C4.11917 5.99998 4.23071 5.73069 4.07322 5.5732L2.715 4.21498C3.89508 2.57019 5.82314 1.5 8.00007 1.5C11.5899 1.5 14.5001 4.41015 14.5001 8C14.5001 11.5899 11.5899 14.5 8.00007 14.5C4.63773 14.5 1.87085 11.9464 1.53446 8.67332C1.49211 8.26128 1.12376 7.96158 0.711712 8.00393C0.299669 8.04628 -2.88752e-05 8.41463 0.0423185 8.82668C0.456521 12.8569 3.86076 16 8.00007 16C12.4183 16 16.0001 12.4183 16.0001 8C16.0001 3.58172 12.4183 0 8.00007 0C5.40771 0 3.10436 1.23301 1.64294 3.14291ZM7.75 4C8.16421 4 8.5 4.33579 8.5 4.75V7.74223L10.5285 8.55364C10.9131 8.70748 11.1002 9.14396 10.9464 9.52854C10.7925 9.91313 10.356 10.1002 9.97146 9.94636L7.47146 8.94636C7.18671 8.83246 7 8.55668 7 8.25V4.75C7 4.33579 7.33579 4 7.75 4Z"/>
</svg>

<svg xmlns="http://www.w3.org/2000/svg" width="16" height="16" viewBox="0 0 16 16"><path fill-rule="evenodd" d="M1.643 3.143L.427 1.927A.25.25 0 000 2.104V5.75c0 .138.112.25.25.25h3.646a.25.25 0 00.177-.427L2.715 4.215a6.5 6.5 0 11-1.18 4.458.75.75 0 10-1.493.154 8.001 8.001 0 101.6-5.684zM7.75 4a.75.75 0 01.75.75v2.992l2.028.812a.75.75 0 01-.557 1.392l-2.5-1A.75.75 0 017 8.25v-3.5A.75.75 0 017.75 4z"/></svg>
